resources/svg/figma-logo-bold.svg

<svg xmlns="http://www.w3.org/2000/svg" viewBox="0 0 256 256" fill="currentColor"><path d="M192.95117,94.00049A45.979,45.979,0,0,0,162,14.001H94A45.979,45.979,0,0,0,63.04883,94.00049a45.93152,45.93152,0,0,0,.00049,67.99939A45.99047,45.99047,0,1,0,140,195.99951V168.387a45.98057,45.98057,0,0,0,52.95117-74.38647ZM184,60.001a22.0245,22.0245,0,0,1-21.98047,21.99951L162,82l-.03857.001L140,82.00049V38.001h22A22.02489,22.02489,0,0,1,184,60.001Zm-112,0a22.02489,22.02489,0,0,1,22-22h22V82H94l-.019.00049A22.02476,22.02476,0,0,1,72,60.001ZM72,128a22.0246,22.0246,0,0,1,21.981-21.99951L94,106.001l22-.00061v43.999L94,150A22.02489,22.02489,0,0,1,72,128Zm44,67.99951A22,22,0,1,1,94,174l22-.00049ZM162,150a21.99953,21.99953,0,0,1-.03857-43.999H162l.019-.00049A21.99976,21.99976,0,0,1,162,150Z"/></svg>

<svg xmlns="http://www.w3.org/2000/svg" viewBox="0 0 256 256" fill="currentColor"><path d="M193,94a46,46,0,0,0-31-80H94A46,46,0,0,0,63,94a46,46,0,0,0,0,68,46,46,0,1,0,77,34V168.4a45.2,45.2,0,0,0,22,5.6,46,46,0,0,0,31-80Zm-9-34a22.1,22.1,0,0,1-22,22H140V38h22A22.1,22.1,0,0,1,184,60ZM72,60A22.1,22.1,0,0,1,94,38h22V82H94A22.1,22.1,0,0,1,72,60Zm0,68a22.1,22.1,0,0,1,22-22h22v44H94A22.1,22.1,0,0,1,72,128Zm44,68a22,22,0,1,1-22-22h22Zm46-46a22,22,0,0,1,0-44h0a22,22,0,0,1,0,44Z"/></svg>
